material/.icons/material/safety-goggles.svg

<svg xmlns="http://www.w3.org/2000/svg" viewBox="0 0 24 24"><path d="M18 9c1.11 0 2 .89 2 2v3c0 1.11-.89 2-2 2h-2.23l-1.24-1.23c-.75-.77-1.76-1.17-2.83-1.17s-2.07.4-2.83 1.17L7.64 16H6c-1.11 0-2-.89-2-2v-3c0-1.11.89-2 2-2h12m0-2H6a4 4 0 00-4 4H1v3h1a4 4 0 004 4h2.5c.04-.06.09-.12 1.79-1.82.39-.39.9-.58 1.41-.58.52 0 1.03.19 1.42.58L14.91 18H18a4 4 0 004-4h1v-3h-1a4 4 0 00-4-4z"/></svg>

<?xml version="1.0" encoding="UTF-8"?><!DOCTYPE svg PUBLIC "-//W3C//DTD SVG 1.1//EN" "http://www.w3.org/Graphics/SVG/1.1/DTD/svg11.dtd"><svg xmlns="http://www.w3.org/2000/svg" xmlns:xlink="http://www.w3.org/1999/xlink" version="1.1" id="mdi-safety-goggles" width="24" height="24" viewBox="0 0 24 24"><path d="M18,9C19.11,9 20,9.89 20,11V14C20,15.11 19.11,16 18,16H15.77L14.53,14.77C13.78,14 12.77,13.6 11.7,13.6C10.63,13.6 9.63,14 8.87,14.77L7.64,16H6C4.89,16 4,15.11 4,14V11C4,9.89 4.89,9 6,9H18M18,7H6A4,4 0 0,0 2,11H2L1,11V14H2V14A4,4 0 0,0 6,18H8.5C8.54,17.94 8.59,17.88 10.29,16.18C10.68,15.79 11.19,15.6 11.7,15.6C12.22,15.6 12.73,15.79 13.12,16.18L14.91,18H18A4,4 0 0,0 22,14H22L23,14V11H22V11A4,4 0 0,0 18,7Z" /></svg>
